usr/share/icons/biglinux-icons-material/scalable/apps/bomi.svg

<svg width="24" height="24" viewBox="0 0 24 24" fill="none" xmlns="http://www.w3.org/2000/svg">
<path fill-rule="evenodd" clip-rule="evenodd" d="M9.59604 1.11359C9.71588 1.11486 9.83043 1.0996 9.93969 1.06779C11.3755 0.973736 12.8111 0.977551 14.2467 1.07924C15.5484 1.18066 16.8085 1.46308 18.0269 1.9265C20.0525 2.76044 21.4386 4.20689 22.185 6.26585C22.6119 7.50549 22.8639 8.78021 22.9411 10.09C23.0478 11.7347 23.0096 13.3758 22.8265 15.0133C22.6895 16.1642 22.3916 17.271 21.933 18.3336C21.0824 20.1761 19.704 21.447 17.7978 22.1463C16.2531 22.6682 14.6647 22.943 13.0325 22.9706C11.1966 23.0661 9.37913 22.9287 7.57997 22.5585C4.26839 21.8208 2.22559 19.8018 1.45158 16.5017C1.12311 15.0161 0.974199 13.5124 1.00483 11.9906C0.968176 10.3724 1.14 8.77709 1.52031 7.20471C2.33171 4.11908 4.2905 2.20701 7.39669 1.46852C8.12048 1.29157 8.8536 1.17326 9.59604 1.11359Z" fill="url(#paint0_radial_0_1)"/>
<path d="M12 4.00063C11.5533 4.00104 11.1073 4.03888 10.6669 4.11374V15.3338C10.6669 15.703 10.3692 16.0007 10 16.0007H9.33313C9.24553 16.0008 9.15877 15.9837 9.07782 15.9502C8.99687 15.9167 8.92332 15.8676 8.86141 15.8057C8.7995 15.7437 8.75045 15.6701 8.71706 15.5891C8.68368 15.5081 8.66662 15.4214 8.66688 15.3338V4.73901C7.27615 5.37639 6.09735 6.39918 5.27019 7.68611C4.44304 8.97304 4.00222 10.4702 4 12C4 14.1217 4.84287 16.1565 6.34316 17.6568C7.84345 19.1571 9.87828 20 12 20C14.1217 20 16.1566 19.1571 17.6569 17.6568C19.1572 16.1565 20 14.1217 20 12C20 9.87826 19.1572 7.84343 17.6569 6.34314C16.1566 4.84285 14.1217 4.00063 12 4.00063ZM11.6698 8C11.7253 8.00051 11.7798 8.01616 11.8284 8.0455L17.8278 11.6821C17.8796 11.7137 17.9228 11.7598 17.9528 11.8157C17.9829 11.8716 17.9987 11.9352 17.9987 12C17.9987 12.0648 17.9829 12.1284 17.9528 12.1843C17.9228 12.2401 17.8796 12.2863 17.8278 12.3178L11.8284 15.9545C11.7777 15.9851 11.7205 16.0007 11.6625 15.9998C11.6045 15.9989 11.5477 15.9815 11.4978 15.9494C11.4479 15.9172 11.4065 15.8714 11.3777 15.8165C11.3489 15.7615 11.3338 15.6993 11.3338 15.636V8.36268C11.3339 8.31475 11.3428 8.26735 11.3597 8.22315C11.3767 8.17895 11.4016 8.13882 11.4328 8.10513C11.464 8.07143 11.501 8.04482 11.5417 8.02677C11.5824 8.00873 11.6259 7.99962 11.6698 8Z" fill="white"/>
<defs>
<radialGradient id="paint0_radial_0_1" cx="0" cy="0" r="1" gradientUnits="userSpaceOnUse" gradientTransform="translate(12 1) rotate(90) scale(11)">
<stop stop-color="#FF7886"/>
<stop offset="1" stop-color="#DD5563"/>
</radialGradient>
</defs>
</svg>

<svg xmlns="http://www.w3.org/2000/svg" width="24" height="24" fill="none"><path fill="url(#a)" fill-rule="evenodd" d="M9.596 1.114c.12 0 .234-.014.344-.046a31.627 31.627 0 0 1 4.307.011c1.301.102 2.561.384 3.78.848 2.025.833 3.412 2.28 4.158 4.339.427 1.24.679 2.514.756 3.824a27.94 27.94 0 0 1-.114 4.923 11.88 11.88 0 0 1-.894 3.32c-.85 1.843-2.229 3.114-4.135 3.813a15.624 15.624 0 0 1-4.765.825 21.423 21.423 0 0 1-5.453-.413c-3.312-.737-5.354-2.756-6.128-6.056a19.047 19.047 0 0 1-.447-4.511 18.491 18.491 0 0 1 .515-4.786c.812-3.086 2.77-4.998 5.877-5.736a13.953 13.953 0 0 1 2.199-.355Z" clip-rule="evenodd"/><path fill="#fff" d="M12 4a8 8 0 0 0-1.333.114v11.22c0 .369-.298.667-.667.667h-.667a.666.666 0 0 1-.666-.667V4.739A8 8 0 0 0 4 12a8 8 0 1 0 8-8Zm-.33 4c.055 0 .11.016.158.046l6 3.636a.35.35 0 0 1 .125.134.39.39 0 0 1 0 .368.349.349 0 0 1-.125.134l-6 3.636a.311.311 0 0 1-.33-.005.352.352 0 0 1-.12-.133.39.39 0 0 1-.044-.18V8.363a.394.394 0 0 1 .099-.258.332.332 0 0 1 .109-.078A.309.309 0 0 1 11.67 8Z"/><defs><radialGradient id="a" cx="0" cy="0" r="1" gradientTransform="matrix(0 11 -11 0 12 1)" gradientUnits="userSpaceOnUse"><stop stop-color="#FF7886"/><stop offset="1" stop-color="#DD5563"/></radialGradient></defs></svg>
